icon_installer/data/icons/scalable/actions/show-text-direction-symbolic-rtl.svg

<?xml version="1.0" encoding="UTF-8"?>
<svg height="16px" viewBox="0 0 16 16" width="16px" xmlns="http://www.w3.org/2000/svg">
    <g fill="#222222">
        <path d="m 2.992188 9 c -0.261719 0 -0.527344 0.09375 -0.71875 0.28125 l -2.2812505 2.28125 v 0.875 l 2.2812505 2.28125 c 0.191406 0.1875 0.457031 0.28125 0.71875 0.28125 h 1 v -1 c 0 -0.265625 -0.089844 -0.53125 -0.28125 -0.71875 l -0.28125 -0.28125 h 11.546874 v -2 h -11.546874 l 0.28125 -0.28125 c 0.191406 -0.1875 0.285156 -0.453125 0.28125 -0.71875 v -1 z m 0 0"/>
        <path d="m 7 2 h 5 c 0.546875 0 1 0.453125 1 1 v 3.925781 c 0 0.589844 -0.484375 1.074219 -1.074219 1.074219 h -3.917969 c -0.589843 0 -1.074218 -0.484375 -1.078124 -1.074219 v 0.035157 c 0.019531 -0.546876 0.488281 -0.980469 1.035156 -0.960938 h 0.035156 h 6 c 0.550781 0 1 -0.449219 1 -1 s -0.449219 -1 -1 -1 h -6 h 0.035156 c -1.660156 -0.058594 -3.046875 1.230469 -3.105468 2.890625 v 0.039063 c 0.003906 1.703124 1.375 3.070312 3.078124 3.070312 h 3.917969 c 1.703125 0 3.074219 -1.371094 3.074219 -3.074219 v -3.925781 c 0 -1.664062 -1.335938 -3 -3 -3 h -5 c -0.550781 0 -1 0.449219 -1 1 s 0.449219 1 1 1 z m 0 0"/>
    </g>
</svg>

<svg xmlns="http://www.w3.org/2000/svg" width="16" height="16"><g fill="#222"><path d="M2.992 9a1.03 1.03 0 0 0-.719.281l-2.28 2.281v.876l2.28 2.28c.192.188.457.282.72.282h1v-1a1 1 0 0 0-.282-.719L3.43 13h11.547v-2H3.43l.28-.281A.983.983 0 0 0 3.993 10V9zm0 0"/><path d="M7 2h5c.547 0 1 .453 1 1v3.926C13 7.516 12.516 8 11.926 8H8.008c-.59 0-1.074-.484-1.078-1.074v.035c.02-.547.488-.98 1.035-.961H14c.55 0 1-.45 1-1s-.45-1-1-1H8h.035A2.994 2.994 0 0 0 4.93 6.89v.04A3.07 3.07 0 0 0 8.008 10h3.918A3.067 3.067 0 0 0 15 6.926V3c0-1.664-1.336-3-3-3H7c-.55 0-1 .45-1 1s.45 1 1 1zm0 0"/></g></svg>
